X:1
T:O Love of Christ
T:O Love of Christ
T:Charles Hutchinson Gabriel
T:Eben Eugene Rexford, 1912
T:Public Domain Courtesy of the Cyber Hymnal™
T:Public Domain Courtesy of the Cyber Hymnal™
C:Charles Hutchinson Gabriel
Z:Public Domain
Z:Courtesy of the Cyber Hymnal™
%%score ( 1 2 ) ( 3 4 )
L:1/8
Q:1/4=105
M:4/4
K:Eb
V:1 treble 
V:2 treble 
V:3 bass 
V:4 bass 
V:1
 [B,GB]2 | [GB]3 [GB] [^F=A][GB][_Ac][GB] | [EG]6 [B,G]2 | [CA]3 [Ec] [D=B][FB][Ec][CA] x4 | %4
w: 1.~O|love of Christ that fail- eth|not, Thou|an- chor for the drift- ing|
w: 2.~O|love that saves us from our|sin, And|wash- es ev- ery stain a-|
w: 3.~O|love un- fail- ing and so|free, O|Christ, Re- deem- er, Lord and|
 [B,G]6 [B,G]2 | [FA]3 [FA] [=EG][FA][Bd][Ac] x5 | [GB]6 [GB]2 x3 | [F=A]3 [FA] [GA][FA][EA][CA] | %8
w: soul, Be|all but this by us for-|got, When|sick with sin Thou made us|
w: way; That|makes us clean with- out, with-|in, What|shall we of- fer Thee to-|
w: friend, Teach|us to trust all things to|Thee, Thou|wilt go with us to the|
 [FA]6 B2 | [Bd]3 [Ac] [CA][DB][GB][FA] x2 | [FA]>[EG] [EG]4 [B,G]2 | [EG]3 [DG] [CA][DB][Ec][Fc] | %12
w: whole. O|love so bound- less, deep, and|so di- vine, What|joy to know that Thou art|
w: day? Naught|have we, bless- èd Lord, so|poor are we, But|love and gra- ti- tude to|
w: end. In|ev- ery joy or sor- row,|gain or loss, Keep|Thou our eyes up- on the|
 [G=B]6 [GB]2 | [GB]3 [GB] [Ac][GB][CB][GB] | [GB]>[FA] [FA]4 [FA]2 | %15
w: mine; O|won- drous love of Christ that|fail- eth not, Be|
w: Thee; O|love that saves and keeps us|from our sin, That|
w: cross. O|love of Christ, un- fail- ing,|and so free, Teach|
 [Bd]3 [Ac] [GB][FA] [Ac]>[DB] | [EG]6 x5 |] %17
w: all but this by us for-|got.|
w: makes us clean with- out, with-|in.|
w: us to trust all things to|Thee.|
V:2
 x2 | x8 | x8 | x12 | x8 | x13 | x11 | x8 | x6 B2 | x10 | x8 | x8 | x8 | x8 | x8 | x8 | x11 |] %17
V:3
 z2 | [E,B,]6 EB, | (E,,B,,E,G, [E,B,]2) z2 | z E, z2 z2 A,E, x4 | [E,,E,]6 z2 | %5
 (z F,) z2 z2 z B,, x5 | z [E,,E,]2 x8 | (z C,) F,2 z C, F,2 | z D,F,C B,2 z2 | %9
 B,,,B,, [F,A,B,]2 F,2 z x3 | B,4 [E,,E,]2 z2 | z G, C2 z E, A,2 | G,6 (G,,F,) | %13
 (=E,G,) C2 z CE,C | [F,C]2 [F,C]4 z2 | (z F,) B,2 [B,D]>[B,,F,A,] x2 | z x10 |] %17
V:4
 x2 | x6 E,2 | x8 | ([A,,-A,]4 A,4-) A,,4 | x8 | B,,4 B,4 B,,3- B,2 | ([E,B,]6 B,,C,D, E,2) | %7
 F,,4 F,,4 | B,,6 x2 | x4 B,,3 B,2 D, | E,2 B,,2 x4 | C,4 A,,4 | (G,,=A,,=B,,D, G,2) x2 | C,4 C,4 | %14
 x8 | B,,4 B,,B,- x2 | [E,B,]6 (E,B,,G,, E,,2) |] %17

